;FLAVOR:Marlin
;TIME:1127
;Filament used: 0.249157m
;Layer height: 0.1
;Generated with Cura_SteamEngine 3.6.0
M140 S60
M105
M190 S60
M104 S195
M105
M109 S195
M82 ;absolute extrusion mode
; Ender 3 Custom Start G-code
G28 ; Home all axes
G92 E0 ; Reset Extruder
G1 Z2.0 F3000 ; Move Z Axis up little to prevent scratching of Heat Bed
G1 X0.1 Y20 Z0.3 F5000.0 ; Move to start position
G1 X0.1 Y200.0 Z0.3 F1500.0 E15 ; Draw the first line
G1 X0.4 Y200.0 Z0.3 F5000.0 ; Move to side a little
G1 X0.4 Y20 Z0.3 F1500.0 E30 ; Draw the second line
G92 E0 ; Reset Extruder
G1 Z2.0 F3000 ; Move Z Axis up little to prevent scratching of Heat Bed
; End of custom start GCode
G92 E0
G1 F2400 E-4
;LAYER_COUNT:100
;LAYER:0
M107
M204 S5000
M205 X30 Y30
G0 F3600 X108.845 Y105.027 Z0.2
M204 S500
M205 X20 Y20
;TYPE:SKIRT
G1 F2400 E0
G1 F1200 X109.343 Y104.521 E0.02361
G1 X109.872 Y104.04 E0.04739
G1 X110.452 Y103.621 E0.07119
G1 X111.075 Y103.269 E0.09499
G1 X111.733 Y102.989 E0.11878
G1 X112.418 Y102.785 E0.14255
G1 X113.122 Y102.658 E0.16634
G1 X113.904 Y102.61 E0.1924
G1 X121.591 Y102.61 E0.44807
G1 X122.305 Y102.65 E0.47186
G1 X123.01 Y102.769 E0.49564
G1 X123.698 Y102.967 E0.51945
G1 X124.359 Y103.24 E0.54323
G1 X124.986 Y103.584 E0.56702
G1 X125.57 Y103.997 E0.59081
G1 X126.104 Y104.472 E0.61458
G1 X126.583 Y105.004 E0.63839
G1 X126.998 Y105.586 E0.66217
G1 X127.347 Y106.211 E0.68597
G1 X127.623 Y106.871 E0.70977
G1 X127.824 Y107.557 E0.73354
G1 X127.947 Y108.262 E0.75735
G1 X127.987 Y109.222 E0.7893
G1 X127.757 Y116.148 E1.01979
G1 X127.835 Y121.56 E1.19981
G1 X127.987 Y125.759 E1.33956
G1 X127.973 Y126.474 E1.36335
G1 X127.879 Y127.183 E1.38714
G1 X127.707 Y127.877 E1.41092
G1 X127.458 Y128.548 E1.43472
G1 X127.136 Y129.187 E1.45852
G1 X126.745 Y129.785 E1.48229
G1 X126.289 Y130.337 E1.5061
G1 X125.775 Y130.834 E1.52988
G1 X125.208 Y131.271 E1.55369
G1 X124.597 Y131.641 E1.57745
G1 X123.947 Y131.941 E1.60126
G1 X123.269 Y132.167 E1.62503
G1 X122.569 Y132.316 E1.64883
G1 X121.59 Y132.391 E1.68149
G1 X113.904 Y132.39 E1.93713
G1 X113.19 Y132.35 E1.96091
G1 X112.485 Y132.23 E1.9847
G1 X111.797 Y132.033 E2.0085
G1 X111.136 Y131.76 E2.03229
G1 X110.51 Y131.415 E2.05606
G1 X109.925 Y131.002 E2.07988
G1 X109.389 Y130.525 E2.10374
G1 X108.894 Y130.032 E2.12698
G1 X108.416 Y129.499 E2.15079
G1 X108 Y128.917 E2.17458
G1 X107.653 Y128.292 E2.19836
G1 X107.278 Y127.328 E2.23276
G1 X106.856 Y125.915 E2.28181
G1 X106.69 Y125.22 E2.30558
G1 X106.602 Y124.51 E2.32937
G1 X106.588 Y124.087 E2.34345
G1 X106.581 Y110.946 E2.78052
G1 X106.621 Y110.232 E2.80431
G1 X106.74 Y109.527 E2.82809
G1 X106.847 Y109.116 E2.84221
G1 X107.272 Y107.689 E2.89173
G1 X107.514 Y107.016 E2.91552
G1 X107.83 Y106.374 E2.93932
G1 X108.216 Y105.772 E2.96311
G1 X108.845 Y105.027 E2.99553
M204 S5000
M205 X30 Y30
G0 F3600 X109.13 Y105.307
M204 S500
M205 X20 Y20
G1 F1200 X109.628 Y104.801 E3.01915
G1 X110.141 Y104.337 E3.04215
G1 X110.705 Y103.934 E3.06521
G1 X111.311 Y103.599 E3.08824
G1 X111.952 Y103.337 E3.11127
G1 X112.618 Y103.149 E3.13429
G1 X113.302 Y103.04 E3.15733
G1 X113.904 Y103.01 E3.17737
G1 X121.591 Y103.01 E3.43304
G1 X122.282 Y103.05 E3.45607
G1 X122.965 Y103.169 E3.47912
G1 X123.628 Y103.367 E3.50214
G1 X124.265 Y103.639 E3.52518
G1 X124.866 Y103.983 E3.54821
G1 X125.424 Y104.394 E3.57126
G1 X125.93 Y104.866 E3.59427
G1 X126.379 Y105.394 E3.61733
G1 X126.764 Y105.969 E3.64034
G1 X127.079 Y106.586 E3.66338
G1 X127.322 Y107.234 E3.6864
G1 X127.489 Y107.907 E3.70946
G1 X127.577 Y108.593 E3.73247
G1 X127.588 Y109.209 E3.75296
G1 X127.357 Y116.162 E3.98434
G1 X127.435 Y121.58 E4.16457
G1 X127.587 Y125.773 E4.30412
G1 X127.572 Y126.466 E4.32717
G1 X127.478 Y127.152 E4.3502
G1 X127.305 Y127.822 E4.37322
G1 X127.056 Y128.469 E4.39627
G1 X126.734 Y129.082 E4.4193
G1 X126.343 Y129.654 E4.44235
G1 X125.89 Y130.177 E4.46536
G1 X125.379 Y130.644 E4.48839
G1 X124.817 Y131.05 E4.51145
G1 X124.213 Y131.388 E4.53447
G1 X123.573 Y131.654 E4.55752
G1 X122.908 Y131.845 E4.58053
G1 X122.224 Y131.957 E4.60358
G1 X121.59 Y131.991 E4.6247
G1 X113.904 Y131.99 E4.88034
G1 X113.213 Y131.95 E4.90336
G1 X112.531 Y131.83 E4.92639
G1 X111.867 Y131.633 E4.94943
G1 X111.23 Y131.361 E4.97247
G1 X110.629 Y131.017 E4.9955
G1 X110.072 Y130.606 E5.01852
G1 X109.671 Y130.241 E5.03656
G1 X109.176 Y129.748 E5.05979
G1 X108.714 Y129.232 E5.08283
G1 X108.315 Y128.666 E5.10586
G1 X107.984 Y128.058 E5.12889
G1 X107.661 Y127.214 E5.15894
G1 X107.239 Y125.801 E5.20799
G1 X107.079 Y125.127 E5.23103
G1 X106.999 Y124.439 E5.25407
G1 X106.988 Y124.087 E5.26578
G1 X106.981 Y110.946 E5.70285
G1 X107.021 Y110.255 E5.72587
G1 X107.14 Y109.573 E5.7489
G1 X107.231 Y109.23 E5.7607
G1 X107.656 Y107.803 E5.81023
G1 X107.891 Y107.152 E5.83325
G1 X108.2 Y106.532 E5.85629
G1 X108.579 Y105.952 E5.87933
G1 X109.13 Y105.307 E5.90754
M204 S5000
M205 X30 Y30
G0 F3600 X109.415 Y105.588
M204 S500
M205 X20 Y20
G1 F1200 X109.913 Y105.082 E5.93116
G1 X110.41 Y104.634 E5.95341
G1 X110.957 Y104.248 E5.97568
G1 X111.545 Y103.931 E5.9979
G1 X112.168 Y103.686 E6.02016
G1 X112.815 Y103.517 E6.04241
G1 X113.478 Y103.426 E6.06466
G1 X113.904 Y103.41 E6.07884
G1 X121.591 Y103.41 E6.33451
G1 X122.259 Y103.45 E6.35677
G1 X122.917 Y103.569 E6.37901
G1 X123.557 Y103.766 E6.40128
G1 X124.168 Y104.038 E6.42353
G1 X124.742 Y104.381 E6.44577
G1 X125.272 Y104.79 E6.46803
G1 X125.749 Y105.259 E6.49028
G1 X126.167 Y105.781 E6.51253
G1 X126.519 Y106.35 E6.53478
G1 X126.801 Y106.957 E6.55704
G1 X127.009 Y107.593 E6.5793
G1 X127.139 Y108.249 E6.60154
G1 X127.188 Y109.196 E6.63308
G1 X126.957 Y116.155 E6.86466
G1 X127.035 Y121.6 E7.04578
G1 X127.187 Y125.788 E7.18517
G1 X127.172 Y126.457 E7.20743
G1 X127.076 Y127.119 E7.22967
G1 X126.903 Y127.765 E7.25192
G1 X126.653 Y128.386 E7.27418
G1 X126.331 Y128.972 E7.29642
G1 X125.942 Y129.516 E7.31866
G1 X125.49 Y130.01 E7.34094
G1 X124.983 Y130.447 E7.3632
G1 X124.428 Y130.819 E7.38542
G1 X123.832 Y131.123 E7.40767
G1 X123.204 Y131.354 E7.42993
G1 X122.553 Y131.508 E7.45218
G1 X121.59 Y131.591 E7.48433
G1 X113.904 Y131.59 E7.73996
G1 X113.236 Y131.55 E7.76222
G1 X112.578 Y131.431 E7.78446
G1 X111.939 Y131.233 E7.80671
G1 X111.328 Y130.962 E7.82894
G1 X110.753 Y130.619 E7.85121
G1 X110.224 Y130.21 E7.87345
G1 X109.953 Y129.958 E7.88576
G1 X109.458 Y129.465 E7.909
G1 X109.013 Y128.965 E7.93126
G1 X108.631 Y128.416 E7.9535
G1 X108.317 Y127.825 E7.97576
G1 X108.044 Y127.1 E8.00153
G1 X107.622 Y125.687 E8.05058
G1 X107.469 Y125.035 E8.07285
G1 X107.388 Y124.087 E8.1045
G1 X107.381 Y110.946 E8.54157
G1 X107.421 Y110.278 E8.56383
G1 X107.614 Y109.345 E8.59552
G1 X108.039 Y107.918 E8.64504
G1 X108.268 Y107.289 E8.6673
G1 X108.57 Y106.692 E8.68955
G1 X108.941 Y106.136 E8.71179
G1 X109.415 Y105.588 E8.73588
M204 S5000
M205 X30 Y30
G0 F3600 X109.7 Y105.868
M204 S500
M205 X20 Y20
G1 F1200 X110.198 Y105.362 E8.7595
G1 X110.678 Y104.932 E8.78093
G1 X111.207 Y104.564 E8.80236
G1 X111.778 Y104.264 E8.82382
G1 X112.381 Y104.038 E8.84524
G1 X113.008 Y103.888 E8.86668
G1 X113.904 Y103.81 E8.89659
G1 X121.591 Y103.81 E9.15226
G1 X122.234 Y103.85 E9.17369
G1 X122.868 Y103.969 E9.19515
G1 X123.482 Y104.166 E9.21659
G1 X124.067 Y104.437 E9.23804
G1 X124.614 Y104.779 E9.25949
G1 X125.114 Y105.185 E9.28092
G1 X125.56 Y105.65 E9.30235
G1 X125.945 Y106.167 E9.32379
G1 X126.264 Y106.728 E9.34525
G1 X126.51 Y107.324 E9.36669
G1 X126.681 Y107.945 E9.38812
G1 X126.773 Y108.583 E9.40956
G1 X126.788 Y109.182 E9.42949
G1 X126.557 Y116.147 E9.66127
G1 X126.634 Y121.558 E9.84126
G1 X126.788 Y125.802 E9.98251
G1 X126.771 Y126.447 E10.00397
G1 X126.675 Y127.084 E10.02539
G1 X126.5 Y127.705 E10.04685
G1 X126.251 Y128.299 E10.06828
G1 X125.929 Y128.858 E10.08973
G1 X125.541 Y129.373 E10.11118
G1 X125.092 Y129.836 E10.13263
G1 X124.59 Y130.239 E10.15404
G1 X124.041 Y130.578 E10.1755
G1 X123.455 Y130.846 E10.19693
G1 X122.84 Y131.039 E10.21837
G1 X122.205 Y131.155 E10.23984
G1 X121.59 Y131.191 E10.26033
G1 X113.904 Y131.19 E10.51597
G1 X113.261 Y131.15 E10.5374
G1 X112.627 Y131.031 E10.55885
G1 X112.013 Y130.834 E10.5803
G1 X111.429 Y130.563 E10.60171
G1 X110.882 Y130.221 E10.62317
G1 X110.235 Y129.674 E10.65135
G1 X109.74 Y129.181 E10.67458
G1 X109.313 Y128.699 E10.696
G1 X108.948 Y128.167 E10.71746
G1 X108.652 Y127.595 E10.73888
G1 X108.427 Y126.985 E10.76051
G1 X108.005 Y125.572 E10.80955
G1 X107.86 Y124.944 E10.83099
G1 X107.788 Y124.087 E10.8596
G1 X107.781 Y110.946 E11.29667
G1 X107.821 Y110.302 E11.31813
G1 X107.997 Y109.459 E11.34677
G1 X108.422 Y108.032 E11.39629
G1 X108.644 Y107.426 E11.41776
G1 X108.939 Y106.853 E11.43919
G1 X109.303 Y106.321 E11.46063
G1 X109.7 Y105.868 E11.48067
M204 S5000
M205 X30 Y30
G1 F2400 E7.48067
G1 F300 Z1.2
G0 F3600 X113.17 Y111.4 Z1.2
M204 S500
M205 X20 Y20
;TYPE:SUPPORT
G1 F300 Z0.2
G1 F2400 E11.48067
G1 F1200 X114.737 Y111.4 E11.53279
G1 X114.737 Y113.504 E11.60277
G1 X114.837 Y113.898 E11.61629
G1 X114.791 Y114.158 E11.62507
G1 X114.754 Y114.286 E11.6295
G1 X114.711 Y114.359 E11.63232
G1 X114.607 Y114.474 E11.63747
G1 X114.361 Y114.648 E11.6475
G1 X114.284 Y114.587 E11.65076
G1 X113.421 Y114.587 E11.67947
G1 X113.17 Y114.336 E11.69127
G1 X113.17 Y111.4 E11.78893
M204 S5000
M205 X30 Y30
G0 F3600 X113.33 Y112.014
M204 S500
M205 X20 Y20
G1 F1200 X114.577 Y112.014 E11.8304
M204 S5000
M205 X30 Y30
G1 F2400 E7.8304
G1 F300 Z1.2
G0 F3600 X114.175 Y120.413 Z1.2
M204 S500
M205 X20 Y20
G1 F300 Z0.2
G1 F2400 E11.8304
G1 F1200 X114.369 Y120.462 E11.83706
G1 X114.492 Y120.525 E11.84165
G1 X114.537 Y120.564 E11.84363
G1 X114.605 Y120.641 E11.84705
G1 X114.677 Y120.758 E11.85162
G1 X114.706 Y120.824 E11.85402
G1 X114.737 Y121.015 E11.86045
G1 X114.737 Y123.6 E11.94643
G1 X113.17 Y123.6 E11.99855
G1 X113.17 Y120.664 E12.0962
G1 X113.421 Y120.413 E12.10801
G1 X114.175 Y120.413 E12.13308
M204 S5000
M205 X30 Y30
G1 F2400 E8.13308
G1 F300 Z1.2
G0 F3600 X114.576 Y122.682 Z1.2
M204 S500
M205 X20 Y20
G1 F300 Z0.2
G1 F2400 E12.13308
G1 F1200 X113.329 Y122.682 E12.17456
M204 S5000
M205 X30 Y30
G1 F2400 E8.17456
G1 F300 Z1.2
;MESH:Ender 3 V2 Ribbon Cable clip.stl
G0 F3600 X120.75 Y109.9 Z1.2
M204 S500
M205 X20 Y20
;TYPE:WALL-INNER
G1 F300 Z0.2
G1 F2400 E12.17456
G1 F1200 X118.611 Y109.9 E12.2457
G1 X118.365 Y109.932 E12.25395
G1 X118.208 Y109.997 E12.25961
G1 X118.1 Y110.042 E12.2635
G1 X117.867 Y110.217 E12.27319
G1 X117.692 Y110.45 E12.28288
G1 X117.582 Y110.715 E12.29242
G1 X117.55 Y110.961 E12.30068
G1 X117.55 Y124.039 E12.73565
G1 X117.582 Y124.285 E12.7439
G1 X117.692 Y124.55 E12.75345
G1 X117.867 Y124.783 E12.76314
G1 X118.1 Y124.958 E12.77283
G1 X118.208 Y125.003 E12.77672
G1 X118.365 Y125.068 E12.78237
G1 X118.611 Y125.1 E12.79062
G1 X120.75 Y125.1 E12.86177
G1 X120.75 Y124.748 E12.87347
G1 X120.75 Y124.498 E12.88179
G1 X121 Y124.748 E12.88715
G1 X121 Y125.1 E12.89446
G1 X121 Y125.4 E12.90345
G1 X120.75 Y125.4 E12.91076
G1 X118.611 Y125.4 E12.96412
G1 X118.365 Y125.4 E12.97058
G1 X118.195 Y125.4 E12.97576
G1 X116.355 Y125.4 E13.03696
G1 X116.185 Y125.4 E13.04262
G1 X115.939 Y125.4 E13.0508
G1 X114.148 Y125.4 E13.11037
G1 X114 Y125.252 E13.11733
G1 X114 Y125.1 E13.12238
G1 X114.148 Y125.1 E13.12492
G1 X115.939 Y125.1 E13.1696
G1 X116.185 Y125.068 E13.17613
G1 X116.342 Y125.003 E13.1813
G1 X116.45 Y124.958 E13.1852
G1 X116.683 Y124.783 E13.19489
G1 X116.858 Y124.55 E13.20458
G1 X116.968 Y124.285 E13.21412
G1 X117 Y124.039 E13.22237
G1 X117 Y110.961 E13.65735
G1 X116.968 Y110.715 E13.6656
G1 X116.858 Y110.45 E13.67514
G1 X116.683 Y110.217 E13.68484
G1 X116.451 Y110.042 E13.6945
G1 X116.342 Y109.997 E13.69842
G1 X116.173 Y109.927 E13.70451
G1 X115.856 Y109.9 E13.71509
G1 X114.148 Y109.9 E13.7719
G1 X114 Y109.9 E13.77682
G1 X114 Y109.748 E13.78048
G1 X114.148 Y109.6 E13.78506
G1 X115.856 Y109.6 E13.82766
G1 X116.173 Y109.6 E13.83592
G1 X116.356 Y109.6 E13.84147
G1 X118.195 Y109.6 E13.90263
G1 X118.365 Y109.6 E13.90782
G1 X118.611 Y109.6 E13.91428
G1 X120.75 Y109.6 E13.96764
G1 X121 Y109.6 E13.97595
G1 X121 Y109.9 E13.98493
G1 X121 Y110.252 E13.99664
G1 X120.75 Y110.502 E14.0084
G1 X120.75 Y110.252 E14.01032
G1 X120.75 Y109.9 E14.01764
M204 S5000
M205 X30 Y30
G0 F3600 X120.35 Y110.3
M204 S500
M205 X20 Y20
;TYPE:WALL-OUTER
G1 F1200 X118.637 Y110.3 E14.07461
G1 X118.469 Y110.322 E14.08025
G1 X118.3 Y110.392 E14.08633
G1 X118.153 Y110.503 E14.09246
G1 X118.042 Y110.65 E14.09859
G1 X117.972 Y110.819 E14.10467
G1 X117.95 Y110.987 E14.1103
G1 X117.95 Y124.013 E14.54355
G1 X117.972 Y124.181 E14.54919
G1 X118.042 Y124.35 E14.55527
G1 X118.153 Y124.497 E14.5614
G1 X118.3 Y124.608 E14.56752
G1 X118.469 Y124.678 E14.57361
G1 X118.637 Y124.7 E14.57924
G1 X120.35 Y124.7 E14.63622
G1 X120.35 Y123.98 E14.66017
G1 X120.35 Y123.7 E14.66948
G1 X120.518 Y123.7 E14.67507
G1 X120.716 Y123.898 E14.68189
G1 X121.4 Y124.582 E14.71406
G1 X121.4 Y125.8 E14.75457
G1 X113.982 Y125.8 E15.00129
G1 X113.6 Y125.418 E15.01926
G1 X113.6 Y124.7 E15.04314
G1 X115.913 Y124.7 E15.12007
G1 X116.081 Y124.678 E15.12571
G1 X116.25 Y124.608 E15.13179
G1 X116.397 Y124.497 E15.13792
G1 X116.508 Y124.35 E15.14405
G1 X116.578 Y124.181 E15.15013
G1 X116.6 Y124.013 E15.15577
G1 X116.6 Y110.987 E15.58901
G1 X116.578 Y110.819 E15.59465
G1 X116.508 Y110.65 E15.60073
G1 X116.397 Y110.503 E15.60686
G1 X116.25 Y110.392 E15.61298
G1 X116.077 Y110.32 E15.61922
G1 X115.839 Y110.3 E15.62716
G1 X113.6 Y110.3 E15.70163
G1 X113.6 Y109.582 E15.72551
G1 X113.982 Y109.2 E15.74348
G1 X121.4 Y109.2 E15.9902
G1 X121.4 Y110.418 E16.03071
G1 X120.716 Y111.102 E16.06289
G1 X120.518 Y111.3 E16.0722
G1 X120.35 Y111.3 E16.07779
G1 X120.35 Y111.02 E16.08461
G1 X120.35 Y110.3 E16.10855
M204 S5000
M205 X30 Y30
G0 F3600 X120.15 Y110.3
G0 X120.15 Y109.8
G0 X119.276 Y109.833
G0 X117.549 Y109.99
M204 S500
M205 X20 Y20
;TYPE:SKIN
G1 F1200 X117.351 Y110.255 E16.11956
G1 X117.275 Y110.438 E16.12615
G1 X117.199 Y110.255 E16.13274
G1 X117.001 Y109.99 E16.14374
G1 X117.549 Y109.99 E16.16197
M204 S5000
M205 X30 Y30
G0 F3600 X117.275 Y124.562
M204 S500
M205 X20 Y20
G1 F1200 X117.351 Y124.745 E16.16856
G1 X117.549 Y125.01 E16.17956
G1 X117.001 Y125.01 E16.19779
G1 X117.199 Y124.745 E16.20879
G1 X117.275 Y124.562 E16.21538
M204 S5000
M205 X30 Y30
G0 F3600 X117.225 Y124.296
M204 S500
M205 X20 Y20
;TYPE:SKIN
G1 F1200 X117.282 Y124.071 E16.21918
G1 X117.274 Y118.123 E16.31646
G1 X117.273 Y111.617 E16.42286
G1 X117.258 Y110.753 E16.437
M204 S5000
M205 X30 Y30
G0 F3600 X117.234 Y110.512
G1 F2400 E12.437
G1 F300 Z1.2
G0 F3600 X117.255 Y110.463 Z1.2
G0 X116.024 Y110.516
G1 F300 Z1.2
;MESH:NONMESH
G0 F3600 X114.681 Y111.4
;TIME_ELAPSED:38.108652
;LAYER:1
M140 S60
M106 S255
G0 F5400 X114.681 Y111.4 Z1.3
M204 S500
M205 X20 Y20
;TYPE:SUPPORT
G1 F300 Z0.3
G1 F2400 E16.437
G1 F1301 X113.17 Y111.4 E16.46212
G1 X113.17 Y114.336 E16.51095
G1 X113.421 Y114.587 E16.51685
G1 X114.284 Y114.587 E16.53121
G1 X114.361 Y114.648 E16.53284
G1 X114.452 Y114.586 E16.53467
G1 X114.575 Y114.502 E16.53715
G1 X114.613 Y114.468 E16.538
G1 X114.681 Y114.393 E16.53968
G1 X114.681 Y111.4 E16.58945
G1 X114.737 Y111.4 E16.59038
G1 X114.737 Y113.506 E16.62541
G1 X114.836 Y113.898 E16.63213
G1 X114.791 Y114.154 E16.63645
G1 X114.751 Y114.29 E16.63881
G1 X114.711 Y114.359 E16.64014
G1 X114.681 Y114.393 E16.64089
M204 S5000
M205 X30 Y30
G1 F2400 E12.64089
G1 F300 Z1.3
G0 F5400 X114.678 Y120.759 Z1.3
M204 S500
M205 X20 Y20
G1 F300 Z0.3
G1 F2400 E16.64089
G1 F1301 X114.605 Y120.641 E16.6432
G1 X114.537 Y120.565 E16.64489
G1 X114.49 Y120.524 E16.64593
