;FLAVOR:Marlin
;TIME:1182
;Filament used: 3.22587m
;Layer height: 0.4
;MINX:76.12
;MINY:96.116
;MINZ:0.3
;MAXX:143.896
;MAXY:163.889
;MAXZ:70.112
;Generated with Cura_SteamEngine 99.9.1-Arachne_engine_beta
M140 S70
M105
M190 S70
M104 S230
M105
M109 S230
M82 ;absolute extrusion mode
G28 
G1 Z15 F300
M107
G90
M82
M104 S215
M140 S55
G92 E0
M109 S215
M107
M163 S0 P0.33
M163 S1 P0.33
M163 S2 P0.33
M164 S4
G0 X10 Y20 F6000
G1 F1200 Z2
G92 E0
G28
;END OF THE START GCODE
M83 ;relative extrusion mode
;LAYER_COUNT:175
;LAYER:0
M107
G0 F1500 X88.209 Y104.053 Z0.3
G0 X88.603 Y104.545
;TYPE:SKIRT
G1 X89.879 Y103.525 E0.13478
G1 X90.39 Y103.142 E0.05269
G1 X91.723 Y102.219 E0.13377
G1 X92.262 Y101.87 E0.05298
G1 X93.355 Y101.212 E0.10526
G1 X94.145 Y100.767 E0.07481
G1 X95.371 Y100.137 E0.11373
G1 X96.197 Y99.743 E0.07551
G1 X97.375 Y99.234 E0.10588
G1 X98.242 Y98.89 E0.07696
G1 X99.515 Y98.44 E0.1114
G1 X100.398 Y98.159 E0.07645
G1 X102.006 Y97.718 E0.13757
G1 X102.544 Y97.589 E0.04565
G1 X104.216 Y97.249 E0.14077
G1 X104.765 Y97.156 E0.04594
G1 X106.079 Y96.975 E0.10944
G1 X106.949 Y96.881 E0.0722
G1 X108.357 Y96.783 E0.11645
G1 X109.206 Y96.75 E0.0701
G1 X110.508 Y96.746 E0.10742
G1 X111.481 Y96.773 E0.08031
G1 X113.161 Y96.891 E0.13895
G1 X113.724 Y96.949 E0.0467
G1 X115.381 Y97.178 E0.13801
G1 X115.949 Y97.275 E0.04754
G1 X117.573 Y97.613 E0.13686
G1 X118.144 Y97.751 E0.04847
G1 X119.755 Y98.201 E0.13801
G1 X120.314 Y98.378 E0.04838
G1 X121.837 Y98.916 E0.13327
G1 X122.395 Y99.133 E0.0494
G1 X123.661 Y99.673 E0.11356
G1 X124.46 Y100.044 E0.07268
G1 X125.665 Y100.658 E0.11158
G1 X126.453 Y101.09 E0.07414
G1 X127.908 Y101.968 E0.14021
G1 X128.371 Y102.267 E0.04547
G1 X129.459 Y103.022 E0.10926
G1 X130.177 Y103.554 E0.07373
G1 X131.482 Y104.602 E0.13809
G1 X131.949 Y105.003 E0.05079
G1 X132.925 Y105.898 E0.10926
G1 X133.573 Y106.529 E0.07462
G1 X134.763 Y107.787 E0.14287
G1 X135.121 Y108.192 E0.0446
G1 X136.159 Y109.449 E0.1345
G1 X136.515 Y109.911 E0.04812
G1 X137.488 Y111.265 E0.13757
G1 X137.807 Y111.741 E0.04728
G1 X138.546 Y112.922 E0.11494
G1 X138.989 Y113.68 E0.07244
G1 X139.592 Y114.806 E0.10538
G1 X140.012 Y115.647 E0.07756
G1 X140.576 Y116.896 E0.11307
G1 X140.902 Y117.679 E0.06998
G1 X141.388 Y118.982 E0.11474
G1 X141.679 Y119.841 E0.07483
G1 X142.059 Y121.12 E0.11008
G1 X142.289 Y121.993 E0.07449
G1 X142.663 Y123.682 E0.14273
G1 X142.756 Y124.181 E0.04188
G1 X142.963 Y125.517 E0.11154
G1 X143.074 Y126.402 E0.07359
G1 X143.191 Y127.768 E0.11312
G1 X143.242 Y128.672 E0.0747
G1 X143.266 Y130.356 E0.13895
G1 X143.256 Y130.901 E0.04497
G1 X143.191 Y132.237 E0.11036
G1 X143.12 Y133.146 E0.07523
G1 X142.965 Y134.464 E0.10949
G1 X142.834 Y135.358 E0.07455
G1 X142.583 Y136.708 E0.11329
G1 X142.4 Y137.556 E0.07158
G1 X142.054 Y138.899 E0.11442
G1 X141.809 Y139.745 E0.07267
G1 X141.268 Y141.36 E0.14052
G1 X141.075 Y141.878 E0.04561
G1 X140.564 Y143.129 E0.11149
G1 X140.203 Y143.942 E0.07339
G1 X139.619 Y145.142 E0.11011
G1 X139.19 Y145.958 E0.07606
G1 X138.358 Y147.391 E0.13671
G1 X138.033 Y147.911 E0.05059
G1 X137.32 Y148.978 E0.10588
G1 X136.779 Y149.738 E0.07697
G1 X135.968 Y150.79 E0.10959
G1 X135.388 Y151.497 E0.07545
G1 X134.492 Y152.508 E0.11146
G1 X133.886 Y153.153 E0.07302
G1 X132.657 Y154.356 E0.14189
G1 X132.256 Y154.725 E0.04496
G1 X131.261 Y155.581 E0.10829
G1 X130.557 Y156.154 E0.07489
G1 X129.464 Y156.974 E0.11274
G1 X128.72 Y157.497 E0.07503
G1 X127.315 Y158.402 E0.13789
G1 X126.82 Y158.699 E0.04763
G1 X125.664 Y159.343 E0.10918
G1 X124.844 Y159.769 E0.07624
G1 X123.66 Y160.327 E0.10799
G1 X122.795 Y160.703 E0.07782
G1 X121.246 Y161.303 E0.13705
G1 X120.701 Y161.494 E0.04765
G1 X119.43 Y161.896 E0.10999
G1 X118.548 Y162.144 E0.07559
G1 X116.904 Y162.538 E0.13948
G1 X116.375 Y162.646 E0.04455
G1 X115.037 Y162.876 E0.11201
G1 X114.175 Y162.998 E0.07183
G1 X112.784 Y163.142 E0.11538
G1 X111.875 Y163.207 E0.07519
G1 X110.609 Y163.252 E0.10452
G1 X109.697 Y163.259 E0.07525
G1 X108.317 Y163.214 E0.11392
G1 X107.403 Y163.157 E0.07556
G1 X105.766 Y162.987 E0.13579
G1 X105.155 Y162.903 E0.05089
G1 X103.909 Y162.694 E0.10424
G1 X103.018 Y162.518 E0.07493
G1 X101.61 Y162.182 E0.11943
G1 X100.807 Y161.963 E0.06867
G1 X99.505 Y161.556 E0.11255
G1 X98.679 Y161.27 E0.07212
G1 X97.375 Y160.765 E0.11537
G1 X96.559 Y160.419 E0.07313
G1 X95.374 Y159.865 E0.10793
G1 X94.577 Y159.463 E0.07365
G1 X93.049 Y158.611 E0.14434
G1 X92.598 Y158.338 E0.0435
G1 X91.476 Y157.615 E0.11013
G1 X90.717 Y157.093 E0.076
G1 X89.409 Y156.111 E0.13495
G1 X88.925 Y155.723 E0.05118
G1 X87.934 Y154.876 E0.10756
G1 X87.262 Y154.266 E0.07488
G1 X86.288 Y153.312 E0.11249
G1 X85.683 Y152.684 E0.07195
G1 X84.758 Y151.645 E0.11477
G1 X84.182 Y150.956 E0.07409
G1 X83.363 Y149.902 E0.11013
G1 X82.83 Y149.17 E0.07471
G1 X81.868 Y147.73 E0.14288
G1 X81.607 Y147.308 E0.04094
G1 X80.765 Y145.845 E0.13927
G1 X80.498 Y145.343 E0.04691
G1 X79.899 Y144.126 E0.11191
G1 X79.522 Y143.297 E0.07514
G1 X78.904 Y141.776 E0.13545
G1 X78.693 Y141.208 E0.04999
G1 X78.283 Y139.982 E0.10666
G1 X78.015 Y139.096 E0.07637
G1 X77.595 Y137.455 E0.13976
G1 X77.474 Y136.904 E0.04654
G1 X77.22 Y135.569 E0.11212
G1 X77.082 Y134.697 E0.07284
G1 X76.919 Y133.343 E0.11252
G1 X76.84 Y132.457 E0.07339
G1 X76.77 Y131.117 E0.11071
G1 X76.75 Y130.199 E0.07576
G1 X76.771 Y128.858 E0.11065
G1 X76.809 Y128.005 E0.07045
G1 X76.954 Y126.313 E0.14011
G1 X77.028 Y125.699 E0.05103
G1 X77.219 Y124.445 E0.10466
G1 X77.391 Y123.496 E0.07957
G1 X77.76 Y121.862 E0.13821
G1 X77.892 Y121.357 E0.04307
G1 X78.388 Y119.688 E0.14365
G1 X78.561 Y119.173 E0.04482
G1 X79.142 Y117.614 E0.13727
G1 X79.352 Y117.099 E0.04589
G1 X79.923 Y115.823 E0.11534
G1 X80.297 Y115.05 E0.07085
G1 X80.912 Y113.89 E0.10833
G1 X81.364 Y113.094 E0.07552
G1 X82.103 Y111.906 E0.11543
G1 X82.594 Y111.167 E0.0732
G1 X83.558 Y109.838 E0.13546
G1 X83.927 Y109.362 E0.04969
G1 X85.001 Y108.074 E0.13836
G1 X85.393 Y107.634 E0.04862
G1 X86.519 Y106.454 E0.13457
G1 X86.952 Y106.03 E0.05
G1 X87.915 Y105.141 E0.10813
G1 X88.603 Y104.545 E0.0751
G0 X88.209 Y104.053
G1 X89.5 Y103.022 E0.13631
G1 X90.031 Y102.625 E0.0547
G1 X91.379 Y101.692 E0.13526
G1 X91.937 Y101.331 E0.05483
G1 X93.044 Y100.664 E0.10663
G1 X93.856 Y100.207 E0.07688
G1 X95.098 Y99.569 E0.1152
G1 X95.947 Y99.164 E0.07761
G1 X97.141 Y98.649 E0.10729
G1 X98.031 Y98.297 E0.07896
G1 X99.321 Y97.841 E0.11289
G1 X100.231 Y97.551 E0.0788
G1 X101.857 Y97.106 E0.13909
G1 X102.418 Y96.972 E0.04759
G1 X104.11 Y96.628 E0.14246
G1 X104.678 Y96.532 E0.04753
G1 X106.01 Y96.349 E0.11093
G1 X106.904 Y96.253 E0.07418
G1 X108.331 Y96.153 E0.11802
G1 X109.204 Y96.12 E0.07208
G1 X110.506 Y96.116 E0.10742
G1 X111.524 Y96.144 E0.08402
G1 X113.222 Y96.264 E0.14044
G1 X113.81 Y96.325 E0.04877
G1 X115.484 Y96.556 E0.13942
G1 X116.077 Y96.658 E0.04964
G1 X117.718 Y97 E0.1383
G1 X118.313 Y97.144 E0.05051
G1 X119.942 Y97.6 E0.13957
G1 X120.524 Y97.784 E0.05036
G1 X122.063 Y98.328 E0.13468
G1 X122.642 Y98.553 E0.05125
G1 X123.924 Y99.101 E0.11503
G1 X124.746 Y99.482 E0.07475
G1 X125.966 Y100.104 E0.11298
G1 X126.777 Y100.55 E0.07636
G1 X128.248 Y101.437 E0.14172
G1 X128.729 Y101.749 E0.0473
G1 X129.832 Y102.515 E0.1108
G1 X130.571 Y103.062 E0.07586
G1 X131.891 Y104.123 E0.13973
G1 X132.374 Y104.538 E0.05254
G1 X133.363 Y105.445 E0.11072
G1 X134.031 Y106.096 E0.07696
G1 X135.234 Y107.369 E0.14451
G1 X135.606 Y107.791 E0.04641
G1 X136.656 Y109.063 E0.13608
G1 X137.027 Y109.543 E0.05005
G1 X138.011 Y110.913 E0.13917
G1 X138.341 Y111.406 E0.04895
G1 X139.09 Y112.603 E0.1165
G1 X139.544 Y113.382 E0.07439
G1 X140.155 Y114.523 E0.10679
G1 X140.586 Y115.387 E0.07966
G1 X141.157 Y116.653 E0.11459
G1 X141.492 Y117.458 E0.07194
G1 X141.984 Y118.777 E0.11615
G1 X142.283 Y119.661 E0.07699
G1 X142.667 Y120.957 E0.11152
G1 X142.904 Y121.857 E0.07679
G1 X143.282 Y123.564 E0.14425
G1 X143.379 Y124.084 E0.04364
G1 X143.588 Y125.438 E0.11304
G1 X143.701 Y126.348 E0.07566
G1 X143.82 Y127.731 E0.11453
G1 X143.872 Y128.662 E0.07693
G1 X143.896 Y130.365 E0.14052
G1 X143.885 Y130.932 E0.04679
G1 X143.819 Y132.284 E0.11168
G1 X143.746 Y133.219 E0.07738
G1 X143.589 Y134.554 E0.1109
G1 X143.453 Y135.472 E0.07657
G1 X143.2 Y136.839 E0.1147
G1 X143.01 Y137.712 E0.07371
G1 X142.66 Y139.073 E0.11594
G1 X142.406 Y139.944 E0.07486
G1 X141.859 Y141.579 E0.14225
G1 X141.658 Y142.115 E0.04723
G1 X141.141 Y143.383 E0.11298
G1 X140.77 Y144.218 E0.07539
G1 X140.177 Y145.433 E0.11155
G1 X139.735 Y146.273 E0.07831
G1 X138.893 Y147.724 E0.13841
G1 X138.557 Y148.26 E0.05219
G1 X137.834 Y149.342 E0.10737
G1 X137.278 Y150.122 E0.07903
G1 X136.457 Y151.187 E0.11095
G1 X135.86 Y151.915 E0.07768
G1 X134.953 Y152.937 E0.11274
G1 X134.327 Y153.603 E0.07541
G1 X133.085 Y154.819 E0.14341
G1 X132.667 Y155.202 E0.04678
G1 X131.66 Y156.069 E0.10963
G1 X130.935 Y156.657 E0.07702
G1 X129.828 Y157.488 E0.1142
G1 X129.062 Y158.027 E0.07728
G1 X127.642 Y158.94 E0.13929
G1 X127.127 Y159.249 E0.04955
G1 X125.956 Y159.901 E0.11058
G1 X125.113 Y160.338 E0.07834
G1 X123.913 Y160.904 E0.10947
G1 X123.023 Y161.291 E0.08007
G1 X121.456 Y161.897 E0.13862
G1 X120.892 Y162.094 E0.04929
G1 X119.603 Y162.501 E0.11153
G1 X118.696 Y162.757 E0.07776
G1 X117.032 Y163.155 E0.14116
G1 X116.483 Y163.266 E0.04621
G1 X115.127 Y163.499 E0.11352
G1 X114.241 Y163.625 E0.07384
G1 X112.831 Y163.77 E0.11695
G1 X111.898 Y163.836 E0.07717
G1 X110.616 Y163.882 E0.10584
G1 X109.676 Y163.889 E0.07756
G1 X108.279 Y163.843 E0.11532
G1 X107.339 Y163.783 E0.07771
G1 X105.683 Y163.611 E0.13736
G1 X105.051 Y163.525 E0.05262
G1 X103.789 Y163.312 E0.1056
G1 X102.872 Y163.131 E0.07712
G1 X101.445 Y162.79 E0.12105
G1 X100.62 Y162.564 E0.07058
G1 X99.3 Y162.152 E0.11409
G1 X98.452 Y161.858 E0.07405
G1 X97.131 Y161.346 E0.11689
G1 X96.292 Y160.99 E0.0752
G1 X95.092 Y160.428 E0.10933
G1 X94.271 Y160.013 E0.0759
G1 X92.725 Y159.151 E0.14604
G1 X92.258 Y158.868 E0.04505
G1 X91.12 Y158.135 E0.11168
G1 X90.34 Y157.597 E0.07818
G1 X89.017 Y156.604 E0.13648
G1 X88.516 Y156.203 E0.05295
G1 X87.512 Y155.343 E0.10907
G1 X86.822 Y154.716 E0.07692
G1 X85.836 Y153.75 E0.11389
G1 X85.214 Y153.104 E0.07399
G1 X84.275 Y152.051 E0.1164
G1 X83.685 Y151.343 E0.07604
G1 X82.855 Y150.275 E0.1116
G1 X82.306 Y149.52 E0.07702
G1 X81.334 Y148.064 E0.14444
G1 X81.061 Y147.623 E0.04279
G1 X80.21 Y146.143 E0.14086
G1 X79.933 Y145.621 E0.04876
G1 X79.327 Y144.389 E0.11328
G1 X78.939 Y143.535 E0.07739
G1 X78.314 Y141.997 E0.13697
G1 X78.096 Y141.408 E0.05182
G1 X77.681 Y140.166 E0.10804
G1 X77.405 Y139.253 E0.07869
G1 X76.981 Y137.592 E0.14144
G1 X76.855 Y137.022 E0.04816
G1 X76.598 Y135.669 E0.11363
G1 X76.457 Y134.773 E0.07484
G1 X76.292 Y133.401 E0.11401
G1 X76.211 Y132.49 E0.07546
G1 X76.14 Y131.132 E0.1122
G1 X76.12 Y130.19 E0.07774
G1 X76.141 Y128.833 E0.11197
G1 X76.181 Y127.952 E0.07276
G1 X76.329 Y126.239 E0.14186
G1 X76.405 Y125.605 E0.05268
G1 X76.598 Y124.334 E0.10607
G1 X76.777 Y123.358 E0.08187
G1 X77.15 Y121.705 E0.13981
G1 X77.288 Y121.178 E0.04495
G1 X77.79 Y119.49 E0.1453
G1 X77.97 Y118.953 E0.04673
G1 X78.558 Y117.378 E0.13871
G1 X78.777 Y116.842 E0.04777
G1 X79.355 Y115.55 E0.11678
G1 X79.74 Y114.755 E0.07288
G1 X80.363 Y113.58 E0.10973
G1 X80.829 Y112.762 E0.07767
G1 X81.577 Y111.559 E0.11688
G1 X82.083 Y110.798 E0.0754
G1 X83.058 Y109.454 E0.13699
G1 X83.443 Y108.959 E0.05174
G1 X84.529 Y107.656 E0.13995
G1 X84.937 Y107.2 E0.05048
G1 X86.077 Y106.005 E0.13626
G1 X86.524 Y105.568 E0.05158
G1 X87.501 Y104.667 E0.10965
G1 X88.209 Y104.053 E0.07732
;MESH:e8a44776-06ac-4c89-a3b4-5e14da73e975.stl
G0 X88.95 Y107.768
G0 X89.809 Y108.734
G0 X89.866 Y131.36
;TYPE:WALL-INNER
G1 X90.003 Y132.712 E0.11212
G1 X90.233 Y134.057 E0.11258
G1 X90.55 Y135.377 E0.112
G1 X90.96 Y136.688 E0.11333
G1 X91.455 Y137.957 E0.11238
G1 X92.034 Y139.193 E0.11261
G1 X92.693 Y140.379 E0.11194
G1 X93.435 Y141.527 E0.11278
G1 X94.253 Y142.621 E0.1127
G1 X95.142 Y143.658 E0.1127
G1 X96.094 Y144.627 E0.11208
G1 X97.116 Y145.534 E0.11274
G1 X98.194 Y146.368 E0.11245
G1 X99.33 Y147.132 E0.11295
G1 X100.506 Y147.813 E0.11212
G1 X101.734 Y148.415 E0.11284
G1 X103.003 Y148.936 E0.11318
G1 X104.28 Y149.358 E0.11096
G1 X105.609 Y149.703 E0.11328
G1 X106.947 Y149.955 E0.11233
G1 X108.305 Y150.116 E0.11283
G1 X109.664 Y150.186 E0.11227
G1 X111.024 Y150.163 E0.11222
G1 X112.388 Y150.048 E0.11294
G1 X113.728 Y149.843 E0.11184
G1 X115.062 Y149.545 E0.11278
G1 X116.375 Y149.158 E0.11294
G1 X117.651 Y148.686 E0.11225
G1 X118.898 Y148.126 E0.11278
G1 X120.099 Y147.487 E0.11224
G1 X121.256 Y146.765 E0.11252
G1 X122.362 Y145.968 E0.11248
G1 X123.413 Y145.097 E0.11262
G1 X124.401 Y144.157 E0.11252
G1 X125.327 Y143.151 E0.11281
G1 X126.177 Y142.092 E0.11204
G1 X126.955 Y140.972 E0.11251
G1 X127.657 Y139.803 E0.1125
G1 X128.28 Y138.584 E0.11295
G1 X128.819 Y137.33 E0.11261
G1 X129.271 Y136.048 E0.11215
G1 X129.633 Y134.737 E0.11221
G1 X129.909 Y133.397 E0.11288
G1 X130.093 Y132.047 E0.11241
G1 X130.185 Y130.685 E0.11263
G1 X130.186 Y129.322 E0.11246
G1 X130.095 Y127.961 E0.11254
G1 X129.911 Y126.614 E0.11217
G1 X129.635 Y125.273 E0.11296
G1 X129.272 Y123.957 E0.11263
G1 X128.822 Y122.675 E0.1121
G1 X128.285 Y121.424 E0.11232
G1 X127.661 Y120.204 E0.11306
G1 X126.96 Y119.035 E0.11246
G1 X126.183 Y117.917 E0.11233
G1 X125.329 Y116.853 E0.11257
G1 X124.406 Y115.847 E0.11264
G1 X123.421 Y114.91 E0.11217
G1 X122.369 Y114.037 E0.11279
G1 X121.264 Y113.241 E0.11236
G1 X120.108 Y112.52 E0.11241
G1 X118.903 Y111.877 E0.11269
G1 X117.661 Y111.319 E0.11234
G1 X116.382 Y110.845 E0.11254
G1 X115.07 Y110.458 E0.11286
G1 X113.74 Y110.159 E0.11247
G1 X112.392 Y109.953 E0.11251
G1 X111.034 Y109.838 E0.11244
G1 X109.672 Y109.814 E0.11239
G1 X108.313 Y109.883 E0.11227
G1 X106.955 Y110.044 E0.11283
G1 X105.622 Y110.294 E0.1119
G1 X104.29 Y110.637 E0.11348
G1 X102.998 Y111.065 E0.11229
G1 X101.747 Y111.579 E0.11159
G1 X100.513 Y112.185 E0.11343
G1 X99.329 Y112.867 E0.11273
G1 X98.198 Y113.625 E0.11233
G1 X97.123 Y114.457 E0.11215
G1 X96.103 Y115.363 E0.11256
G1 X95.146 Y116.336 E0.1126
G1 X94.256 Y117.372 E0.11269
G1 X93.44 Y118.463 E0.11241
G1 X92.698 Y119.609 E0.11264
G1 X92.038 Y120.799 E0.11227
G1 X91.46 Y122.03 E0.1122
G1 X90.959 Y123.311 E0.11349
G1 X90.55 Y124.613 E0.1126
G1 X90.236 Y125.923 E0.11114
G1 X90.005 Y127.281 E0.11365
G1 X89.866 Y128.631 E0.11197
G1 X89.821 Y129.999 E0.11293
G1 X89.843 Y130.664 E0.0549
G1 X89.866 Y131.36 E0.05746
G0 X89.237 Y131.402
G1 X89.379 Y132.797 E0.11569
G1 X89.615 Y134.184 E0.11608
G1 X89.943 Y135.545 E0.11551
G1 X90.365 Y136.897 E0.11686
G1 X90.875 Y138.206 E0.11591
G1 X91.473 Y139.48 E0.11612
G1 X92.153 Y140.704 E0.11553
G1 X92.918 Y141.887 E0.11623
G1 X93.342 Y142.456 E0.05855
G1 X93.761 Y143.015 E0.05764
G1 X94.677 Y144.085 E0.11621
G1 X95.66 Y145.084 E0.11563
G1 X96.713 Y146.019 E0.11619
G1 X97.825 Y146.879 E0.11598
G1 X98.996 Y147.667 E0.11645
G1 X100.209 Y148.369 E0.11563
G1 X101.475 Y148.99 E0.11634
G1 X102.784 Y149.527 E0.11673
G1 X104.101 Y149.963 E0.11446
G1 X105.471 Y150.318 E0.11677
G1 X106.851 Y150.578 E0.11586
G1 X108.251 Y150.744 E0.11632
G1 X109.653 Y150.817 E0.11583
G1 X111.056 Y150.792 E0.11577
G1 X112.462 Y150.674 E0.11641
G1 X113.845 Y150.462 E0.11544
G1 X115.22 Y150.155 E0.11624
G1 X116.574 Y149.756 E0.11646
G1 X117.89 Y149.269 E0.11577
G1 X119.176 Y148.692 E0.11629
G1 X120.414 Y148.033 E0.11571
G1 X121.607 Y147.289 E0.116
G1 X122.748 Y146.466 E0.11607
G1 X123.831 Y145.568 E0.11608
G1 X124.85 Y144.599 E0.11602
G1 X125.805 Y143.562 E0.11631
G1 X126.682 Y142.469 E0.11562
G1 X127.484 Y141.315 E0.11595
G1 X128.208 Y140.109 E0.11606
G1 X128.851 Y138.852 E0.11649
G1 X129.407 Y137.559 E0.11612
G1 X129.872 Y136.236 E0.1157
G1 X130.246 Y134.885 E0.11566
G1 X130.53 Y133.503 E0.11641
G1 X130.72 Y132.11 E0.11599
G1 X130.815 Y130.706 E0.1161
G1 X130.816 Y129.301 E0.11592
G1 X130.722 Y127.897 E0.1161
G1 X130.533 Y126.508 E0.11566
G1 X130.248 Y125.125 E0.1165
G1 X129.873 Y123.769 E0.11608
G1 X129.41 Y122.446 E0.11565
G1 X128.855 Y121.156 E0.11587
G1 X128.212 Y119.898 E0.11656
G1 X127.489 Y118.693 E0.11594
